outputs/icons/charts/chart_bar_round.svg

<svg xmlns="http://www.w3.org/2000/svg" width="1200" height="1200" fill="none"><path fill="#000" d="M250 535c0-41.421 33.579-75 75-75s75 33.579 75 75v402.5c0 6.905-5.596 12.5-12.5 12.5h-125c-6.904 0-12.5-5.595-12.5-12.5zm280-215c0-38.66 31.34-70 70-70s70 31.34 70 70v617.5c0 6.905-5.595 12.5-12.5 12.5h-115c-6.905 0-12.5-5.595-12.5-12.5zm280 400c0-38.66 31.34-70 70-70s70 31.34 70 70v217.5c0 6.905-5.595 12.5-12.5 12.5h-115c-6.905 0-12.5-5.595-12.5-12.5z"/></svg>

<svg width="1200" height="1200" viewBox="0 0 1200 1200" fill="none" xmlns="http://www.w3.org/2000/svg"><path d="M250 535C250 493.579 283.579 460 325 460C366.421 460 400 493.579 400 535V937.5C400 944.405 394.404 950 387.5 950H262.5C255.596 950 250 944.405 250 937.5V535ZM530 320C530 281.34 561.34 250 600 250C638.66 250 670 281.34 670 320V937.5C670 944.405 664.405 950 657.5 950H542.5C535.595 950 530 944.405 530 937.5V320ZM810 720C810 681.34 841.34 650 880 650C918.66 650 950 681.34 950 720V937.5C950 944.405 944.405 950 937.5 950H822.5C815.595 950 810 944.405 810 937.5V720Z" fill="black"/></svg>
